X: 18
T:Norwegian Wood
M:12/8
L:1/8
Q:3/8=80
K:E
"E"B3 cBA G3 FAG|E3 "Bm7"=DAC B,6||
"E"B3 cBA G3 FAG|E3 "Bm7" =DAC "A"B,4-B, "E"E|!
"Em"BBB BAA A=GG GA>G|!
"A"A3 z8 B,|"Em"BBB BAA A=GG GA>G|
A6 z4 z2|: {G}[e/B/][e/B/][e/B/][e/B/][eB]
[e/c/] [Be][Ae] {F}[B/G/][B/G/][B/G/]
